!!!OTL: Die heiligen zwölf Zahlen (304b), S. 630
!!!id: T0495
**kern
*clefG2
*k[]
*G:
{16g
=1
16g
8b
8b
8b
8a
=2
8b
8cc
4dd}
=3
{8b
8b
8b
8a
=4
8b
8cc
4dd}
=5
{8ee
8dd
8cc
8a
=6
4a
4g}
=7
{8b
8b
8b
8a
=8
8b
8cc
4dd}
=9
{8b
8b
8b
8a
=10
8b
8cc
8dd
8dd}
=11
{8ee
8dd
8cc
8a
=12
4a
4g}
==
*-
!!!minrhy: 16
!!!meters: 2/4 ]  ZZ[6
!!!cut: Die heiligen zwölf Zahlen (304b), S. 630
!!!reg: Luxemburg
!!!trd: Singendes Volk, Esch-Alzette 1937 posth.
!!!rhy1:   X_X_X_X_  X_X_X__   (x2)
!!!rhy2: X_X_X_X_  X_X_X__
!!!key: T0495  16  G 2/4 ]  ZZ[6
!!!mod: SECHSTONSKALA DUR ?]  AMBITUS[6
!!!kad: 551551
!!!akz: 33_33_62_33_33_62_
!!!fot: 'a__a__b__a__av_b__
!!!for: 'a__a__b__a__aw_b__
!!!fok: '/__/__\__/__/__\__
!! PHRAS[VOLLTAKTIG]
!!!fkt: geistliches Lied
!!!bem: Diekirch, fff Elise Laschette, 1934
!! THILL, Mathias
!! PR[42] 2K[0] 2G[11] 3K[5] 3G[0] 4A[0] 4Ü[0] 5A[11] 6K[0] 6G[0]
!! 7K[0] 7G[0] 8A[0] MEHR[0] SI[26] ABS[19] SR[11] SP[16]
!! ST[6] 2k[0] 2g[11] 3k[11] 3g[0] 4d[0] 4ü[0] 5d[11] 6k[0] 6g[0]
!! 7k[0] 7g[0] 8d[0] mehr[0] si[32] dm[-6] sr[11] sp[21]
!! 1F[80] 2F[20] 3F[0] 4F[0] LF[0] 2P[0] 3P[0] 4P[0] TRI[0] DF[2] AB[20]
!! TF[0] U3K[0] U3[0] U4[0] U4Ü[0] U5[0] U6K[0] U6[0] U7K[0] U7[0]
!! N1[10] N2K[0] N2[0] N3K[0] N3[10] N4[0] N4Ü[0] N5[60] N6K[0] N6[20]
!!!n7k: 0] N7[0] O1[0] O2K[0] O2[0] O3K[0] O3[0] HÖ[0
